web/assets/img/functions/1000.svg

<svg width="512" height="512" viewBox="0 0 512 512" fill="none" xmlns="http://www.w3.org/2000/svg">
    <path fill-rule="evenodd" clip-rule="evenodd"
          d="M89 306C89 278.386 111.386 256 139 256H379C406.614 256 429 278.386 429 306V346C429 351.523 424.523 356 419 356H389V391C389 396.523 384.523 401 379 401C373.477 401 369 396.523 369 391V356H149V391C149 396.523 144.523 401 139 401C133.477 401 129 396.523 129 391V356H99C93.4772 356 89 351.523 89 346V306ZM139 276C122.431 276 109 289.431 109 306V336H409V306C409 289.431 395.569 276 379 276H139Z"
          fill="#282828"/>
    <path fill-rule="evenodd" clip-rule="evenodd"
          d="M385.914 142.775C389.904 146.594 390.043 152.924 386.225 156.914L355.975 188.524C354.088 190.495 351.478 191.61 348.75 191.61C346.022 191.61 343.412 190.495 341.525 188.524L327.775 174.156C323.957 170.166 324.096 163.836 328.086 160.017C332.076 156.199 338.406 156.338 342.225 160.328L348.75 167.146L371.775 143.086C375.594 139.096 381.924 138.957 385.914 142.775Z"
          fill="#12A71E"/>
    <path fill-rule="evenodd" clip-rule="evenodd"
          d="M362.813 60.1522L357 68.2893L351.187 60.1522L357 56L362.813 60.1522ZM357 81.0212C356.14 81.7395 355.204 82.5374 354.202 83.412C348.863 88.0732 341.749 94.8507 334.657 103.293C320.279 120.41 307 143.16 307 168.286C307 195.9 329.386 218.286 357 218.286C384.614 218.286 407 195.9 407 168.286C407 143.16 393.721 120.41 379.343 103.293C372.251 94.8507 365.137 88.0732 359.798 83.412C358.796 82.5374 357.86 81.7395 357 81.0212ZM351.182 60.1563C351.185 60.1541 351.187 60.1522 357 68.2893C362.813 60.1522 362.815 60.1541 362.818 60.1563L362.844 60.1745L362.897 60.2126C362.939 60.2432 362.996 60.2844 363.067 60.336C363.208 60.4391 363.405 60.584 363.654 60.7696C364.151 61.1407 364.856 61.6754 365.74 62.3666C367.506 63.7482 369.99 65.7599 372.952 68.3459C378.863 73.5066 386.749 81.0152 394.657 90.4296C410.279 109.027 427 136.276 427 168.286C427 206.946 395.66 238.286 357 238.286C318.34 238.286 287 206.946 287 168.286C287 136.276 303.721 109.027 319.343 90.4296C327.251 81.0152 335.137 73.5066 341.048 68.3459C344.01 65.7599 346.494 63.7482 348.26 62.3666C349.144 61.6754 349.849 61.1407 350.346 60.7696C350.595 60.584 350.792 60.4391 350.933 60.336C351.004 60.2844 351.061 60.2432 351.103 60.2126L351.156 60.1745L351.175 60.1613L351.182 60.1563Z"
          fill="#282828"/>
</svg>

<?xml version="1.0" encoding="utf-8"?>
<!-- Generator: Adobe Illustrator 28.2.0, SVG Export Plug-In . SVG Version: 6.00 Build 0)  -->
<svg version="1.1" id="Calque_1" xmlns="http://www.w3.org/2000/svg" xmlns:xlink="http://www.w3.org/1999/xlink" x="0px" y="0px"
	 viewBox="0 0 512 512" style="enable-background:new 0 0 512 512;" xml:space="preserve">
<style type="text/css">
	.st0{fill-rule:evenodd;clip-rule:evenodd;fill:#282828;}
	.st1{fill-rule:evenodd;clip-rule:evenodd;fill:#33B0DF;}
</style>
<path class="st0" d="M89,306c0-27.6,22.4-50,50-50h240c27.6,0,50,22.4,50,50v40c0,5.5-4.5,10-10,10h-30v35c0,5.5-4.5,10-10,10
	s-10-4.5-10-10v-35H149v35c0,5.5-4.5,10-10,10s-10-4.5-10-10v-35H99c-5.5,0-10-4.5-10-10V306z M139,276c-16.6,0-30,13.4-30,30v30
	h300v-30c0-16.6-13.4-30-30-30H139z"/>
<path class="st1" d="M385.9,142.8c4,3.8,4.1,10.1,0.3,14.1L356,188.5c-1.9,2-4.5,3.1-7.2,3.1s-5.3-1.1-7.2-3.1l-13.8-14.4
	c-3.8-4-3.7-10.3,0.3-14.1c4-3.8,10.3-3.7,14.1,0.3l6.5,6.8l23-24.1C375.6,139.1,381.9,139,385.9,142.8z"/>
<path class="st0" d="M362.8,60.2l-5.8,8.1l-5.8-8.1L357,56L362.8,60.2z M357,81c-0.9,0.7-1.8,1.5-2.8,2.4
	c-5.3,4.7-12.5,11.4-19.5,19.9c-14.4,17.1-27.7,39.9-27.7,65c0,27.6,22.4,50,50,50s50-22.4,50-50c0-25.1-13.3-47.9-27.7-65
	c-7.1-8.4-14.2-15.2-19.5-19.9C358.8,82.5,357.9,81.7,357,81z M351.2,60.2c0,0,0,0,5.8,8.1c5.8-8.1,5.8-8.1,5.8-8.1l0,0l0.1,0
	c0,0,0.1,0.1,0.2,0.1c0.1,0.1,0.3,0.2,0.6,0.4c0.5,0.4,1.2,0.9,2.1,1.6c1.8,1.4,4.2,3.4,7.2,6c5.9,5.2,13.8,12.7,21.7,22.1
	c15.6,18.6,32.3,45.8,32.3,77.9c0,38.7-31.3,70-70,70s-70-31.3-70-70c0-32,16.7-59.3,32.3-77.9c7.9-9.4,15.8-16.9,21.7-22.1
	c3-2.6,5.4-4.6,7.2-6c0.9-0.7,1.6-1.2,2.1-1.6c0.2-0.2,0.4-0.3,0.6-0.4C351,60.3,351.1,60.2,351.2,60.2L351.2,60.2L351.2,60.2
	L351.2,60.2z"/>
</svg>
